optimized/20/solid/musical-note.svg

<svg xmlns="http://www.w3.org/2000/svg" viewBox="0 0 20 20">
  <path fill-rule="evenodd" d="M17.721 1.59894C17.8974 1.74132 18 1.95589 18 2.18262V13.4723C18 14.5317 17.261 15.4476 16.2255 15.6715L14.1848 16.1127C12.804 16.4113 11.5 15.3591 11.5 13.9464C11.5 12.9032 12.2275 12.0012 13.247 11.7803L15.9088 11.2035C16.2538 11.1287 16.5 10.8235 16.5 10.4705V6.11212L8.5 7.84185V15.5263C8.5 16.5857 7.76097 17.5016 6.7255 17.7255L4.68397 18.1669C3.30357 18.4654 2 17.4136 2 16.0013C2 14.9574 2.72854 14.0552 3.74894 13.8353L6.408 13.2622C6.7534 13.1878 7 12.8824 7 12.5291V4.23668C7 3.88354 7.24634 3.57825 7.5915 3.50362L17.0915 1.44956C17.3131 1.40165 17.5445 1.45656 17.721 1.59894Z" clip-rule="evenodd"/>
</svg>

<svg xmlns="http://www.w3.org/2000/svg" viewBox="0 0 20 20" fill="currentColor" aria-hidden="true">
  <path fill-rule="evenodd" d="M17.721 1.599a.75.75 0 01.279.584v11.29a2.25 2.25 0 01-1.774 2.198l-2.041.442a2.216 2.216 0 01-.938-4.333l2.662-.576a.75.75 0 00.591-.734V6.112l-8 1.73v7.684a2.25 2.25 0 01-1.774 2.2l-2.042.44a2.216 2.216 0 11-.935-4.33l2.659-.574A.75.75 0 007 12.53V4.237a.75.75 0 01.591-.733l9.5-2.054a.75.75 0 01.63.149z" clip-rule="evenodd"/>
</svg>
